X:1
T:Congratulamini mihi - Palestrina
T:#
%%score [ 1 2 3 4 ]
L:1/8
Q:1/4=200
M:none
K:C
V:1 treble nm="Soprano" snm="S"
V:2 treble nm="Alto" snm="A"
V:3 treble-8 nm="Tenor" snm="T"
V:4 bass nm="Bass" snm="B"
V:1
"^Congratulamini mihi""^G. P. da Palestrina\n(1526-94)" z16 | z16 | z16 | E16 | E8 E8 | %5
w: |||Con-|gra- tu-|
 A6 A2 G4 c4- |[M:4/2] (c2 B2 A8 G4 | F16) | E16- | E8 z4 E4 | E4 F4 G4 G4 | A4 (c8 B4) | A8 G8- | %13
w: la- mi- ni mi\-|||hi,|* con-|gra- tu- la- mi-|ni mi\- *|* hi|
 G16 | z16 | A8 G8 | c8 A4 c4- | c4 B4 (A4 G4) | (F4 E4) (D6 E2 | F4 E8) D4 | E8 z8 | A8 G8 | %22
w: ||o- mnes|qui di- li\-|* gi- tis *|* * Do\- *|* * mi-|num,|o- mnes|
 c8 A4 c4- | c4 B4 (A4 G4) | F4 F4 E8- | E8 z8 | z16 | z16 | z4 A4 A4 A4 | c8 A4 c4- | %30
w: qui di- li\-|* gi- tis *|Do- mi- num,||||qui- a cum|es- sem par\-|
 (c2 B2 G4 A4 G2 F2 | E4 A6 B2 c4- | c4) B4 c8 | z4 c8 A4 | A16- | A8 G8 | c8 c8 | B16- | %38
w: ||* vu- la,|pla- cu-|i|* Al-|tis- si-|mo,|
 B8 z4 G4- | G4 E4 E8 | C4 (c8 B4- | B2 A2 A8) ^G4 | A8 z8 | A12 A4 | c8 A4 G4 | (c4 B6 A2 A4- | %46
w: * pla\-|* cu- i|Al- tis\- *|* * * si-|mo:|Et de|me- is vi-|sce\- * * *|
 A4 G4 A6 G2 | F4 E8) D4 | E16- | E8 z8 | z16 | z4 d6 c2 c4 | B8 A8- | A4 G4 F4 F4 | E16- | E16 | %56
w: |* * ri-|bus|||ge- nu- i|De- um|* et ho- mi-|nem,||
 z8 A8- | A4 A4 c8 | A4 G4 (c6 B2 | A2 G2 A4 F4) G4 | A16 | z16 | z16 | z4 d6 c2 c4 | B8 A8- | %65
w: et|* de me-|is vi- sce\- *|* * * * ri-|bus|||ge- nu- i|De- um|
 A8 G8 | (c6 B2 A4 B4- | B2 A2 A8)[Q:1/4=198] ^G4 |[Q:1/4=189] A16- |[Q:1/4=176] A16 | %70
w: * et|ho\- * * *|* * * mi-|nem.||
[Q:1/4=170] A16 |] %71
w: |
V:2
 B,16 | B,8 B,8 | (E6 D2 C4) B,4 | C8 (B,4 A,4- | A,2 G,2 C8 B,4 | C4 D4) E8 | %6
w: Con-|gra- tu-|la\- * * mi-|ni mi\- *||* * hi,|
[M:4/2] (A,6 B,2 C2 D2 E4- | E2 D2 D8 C2 B,2 | C4 B,8 A,4- | A,4 ^G,2 ^F,2 G,8) | A,4 (C4 B,4 C4 | %11
w: mi\- * * * *||||hi, mi\- * *|
 A,6 B,2 C2 D2 E4-) | (E4 D4) E8 | z8 D8 | C8 F8 | D4 F8 E4 | E4 (F6 E2 E2 DC | D4) D4 (E6 D2) | %18
w: |* * hi|o-|mnes qui|di- li- gi-|tis Do\- * * * *|* mi- num, *|
 (C8 G,8) | C4 B,4 C4 A,4 | B,4 (E6 F2 G2 E2 | F4) F4 (D6 E2 | F4 E2 D2 C8) | (D6 E2 F4) E4 | %24
w: |qui di- li- gi-|tis Do\- * * *|* mi- num, *||Do\- * * mi-|
 (D12 C2 B,2 | C6 D2 E8) | z4 E4 E4 E4 | F8 (D6 E2 | F4 E4) F4 F4 | E8 z4 E4 | E4 E4 F4 E4 | %31
w: num, * *||qui- a cum|es- sem *|* * par- vu-|la, qui-|a cum es- sem|
 (G4 F6 E2 D2 C2 | D4) D4 C8- | C8 z4 F4- | F4 D4 D8- | D4 C8 E4- | (E2 F2 G8) ^F4 | G8 z4 D4- | %38
w: par\- * * * *|* vu- la,|* pla\-|* cu- i|* Al- tis\-|* * * si-|mo, pla\-|
 D4 B,4 B,8 | G,8 G8 | E8 E8- | E8 z4 E4- | E4 E4 F8 | D4 C4 F4 F4 | E16- | E16 | E8 C8 | %47
w: * cu- i|Al- tis-|si- mo:|* Et|* de me-|is vi- sce- ri-|bus,||et de|
 D4 G,4 A,8 | C4 B,4 A,8 | z4 E6 D2 D4 | (C4 B,6 A,2 A,4- | A,4 ^G,4) A,4 A4- | A2 G2 G4 (F8 | %53
w: me- is vi-|sce- ri- bus|ge- nu- i|De\- * * *|* * um, ge\-|* nu- i De\-|
 E8) D8- | (D4 C2 B,2 C8) | A,8 C4 B,4 | (A,6 B,2 C8 | D8) z8 | E12 E4 | F8 D4 C4 | F4 F4 E8- | %61
w: * um||et ho- mi-|nem, * *||et de|me- is vi-|sce- ri- bus|
 E8 z4 A4- | A2 G2 G4 (F4 E4) | D8 z4 A4- | A2 G2 G4 F8 | E8 E8 | (C6 D2 E2 F2 E4- | E4) D4 E8 | %68
w: * ge\-|* nu- i De\- *|um, ge\-|* nu- i De-|um et|ho\- * * * *|* mi- nem,|
 C8 (D4 E4 | F8) F8 | E16 |] %71
w: et ho\- *|* mi-|nem.|
V:3
 z16 | E16 | E8 E8 | A6 A2 G4 (c4- | c2 B2 A8 G4 | F8) E4 A4- |[M:4/2][K:treble-8] (A2 G2 F8 C4 | %7
w: |Con-|gra- tu-|la- mi- ni mi\-||* hi, mi\-||
 D6 E2 F2 G2 A4- | A4 G4 c8) | B16 | c8 d4 e4 | c8 A4 B4 | (c4 A2 B2 c2 d2 e4- | e2 d2 c8 B4 | %14
w: ||hi,|con- gra- tu-|la- mi- ni|mi\- * * * * *||
 G4 A8) (F4- | F2 G2 A2 B2 c8) | z16 | z16 | z16 | z8 A8 | G8 c8 | A4 c8 B4 | A16 | (G8 F4) C4 | %24
w: * * hi|||||o-|mnes qui|di- li- gi-|tis|Do\- * mi-|
 (D2 E2 F2 G2 A8) | z4 A4 A4 A4 | c4 A4 (c6 Bc | d4 c8) B4 | c8 z8 | z4 A4 A4 A4 | c8 A4 (c4- | %31
w: num, * * * *|qui- a cum|es- sem par\- * *|* * vu-|la,|qui- a cum|es- sem par\-|
 c2 B2 A2 G2 F4) A4 | G8 z4 c4- | c4 A4 A8 | d8 f8- | f4 e4 e8- | (e4 d4 c8) | z4 d8 B4 | %38
w: * * * * * vu-|la, pla\-|* cu- i|Al- tis\-|* si- mo,||pla- cu-|
 B8 (G6 A2 | B4) (c6 d2 e4- | e2 d2 c2 B2 A4 B4 | c4 B2 A2 B4) B4 | A16 | z8 z4 A4- | A4 A4 c8 | %45
w: i Al\- *|* tis\- * *||* * * * si-|mo:|Et|* de me-|
 A4 G4 c4 c4 | B8 z4 A4 | A4 c8 A4- | A4 G4 c4 c4 | B8 z4 A4- | A2 G2 G4 (F6 E2 | D8) E8 | %52
w: si vi- sce- ri-|bus, et|de- me- is|* vi- sce- ri-|bus ge\-|* nu- i De\- *|* um|
 E8 (F2 G2 A2 B2 | c4) C4 (D2 E2 F2 G2) | A8 z8 | z16 | e12 e4 | f8 e4 A4 | (c6 B2 A2 G2 A4 | %59
w: et ho\- * * *|* mi- num, * * *|||et de|me- is vi-|sce\- * * * *|
 F12) E4 | D4 d6 c2 c4 | B8 (A6 B2 | c4) (B6 A2) A4- | A4 ^G4 A8 | z8 z4 d4- | d2 c2 c4 B8 | %66
w: * ri-|bus ge- nu- i|De- um *|* et * ho\-|* mi- nem,|ge\-|* nu- i De-|
 (A6 B2 c4) B4 | (c4 B2 A2 B4) B4 | A4 f4 f4 e4 | d8 d8 | ^c16 |] %71
w: um * * et|ho\- * * * mi-|nem, De- um et|ho- mi-|nem.|
V:4
 z16 | z16 | z16 | z16 | z16 | z16 |[M:4/2] z16 | z16 | E,16 | E,8 E,8 | A,6 A,2 G,4 (C4- | %11
w: ||||||||Con-|gra- tu-|la- mi- ni mi\-|
 C2 B,2 A,8 G,4) | F,8 E,4 (C,4- | C,2 D,2 E,2 F,2 G,8 | E,4 F,4) D,8- | D,8 z8 | z8 A,8 | G,8 C8 | %18
w: |* hi, mi\-||* * hi||o-|mnes qui|
 A,4 C8 B,4 | (A,4 G,4) F,4 F,4 | (E,6 D,2 C,8 | F,8 G,8) | z16 | z16 | z8 z4 A,4 | A,4 A,4 C8 | %26
w: di- li- gi-|tis * Do- mi-|num, * *||||qui-|a cum es-|
 A,4 (C6 B,2 A,2 G,2 | F,4) F,4 G,8 | (A,6 G,2 F,4) D,4 | A,8 z8 | z16 | z16 | z8 z4 A,4- | %33
w: sem par\- * * *|* vu- la,|par\- * * vu-|la,|||pla\-|
 A,4 F,4 (F,6 E,2 | D,16) | A,8 C8- | (C4 B,4 A,4) A,4 | G,16 | G,12 E,4 | E,8 (C,4 C4- | %40
w: * cu- i *||Al- tis\-|* * * si-|mo,|pla- cu-|i al- tis\-|
 C2 B,2 A,8 G,4 | A,4) A,4 E,8 | A,8 (F,4 D,2 E,2 | F,2 G,2) A,4 D,8 | z16 | z8 E,8 | E,8 F,8 | %47
w: |* si- mo,|Al- tis- * *|* * si- mo:||Et|de me-|
 D,4 C,4 F,4 F,4 | E,8 z4 A,4- | A,2 G,2 G,4 F,8 | E,4 E,4 (D,6 C,2 | B,,4) B,,4 A,,8 | z16 | z16 | %54
w: is vi- sce- ri-|bus ge\-|* nu- i De-|um et ho\- *|* mi- nem,|||
 z4 A,8 A,4 | C8 A,4 G,4 | (C6 B,2 A,2 G,2 A,4 | F,4) D,4 A,8 | z16 | z16 | z8 z4 A,4- | %61
w: et de|me- is vi-|sce\- * * * *|* ri- bus|||ge\-|
 A,2 G,2 G,4 F,8 | E,4 E,4 (D,4 C,4 | B,,4) B,,4 A,,8 | E,8 F,4 D,4 | (A,8 E,8) | z4 A,6 A,2 G,4 | %67
w: * nu- i De-|um et ho\- *|* mi- nem,|et ho- mi-|nem, *|ge- nu- i|
 F,8 E,8 | (F,6 E,2 D,4 ^C,4) | D,8 D,8 | A,16 |] %71
w: De- um|et * * *|ho- mi-|nem.|

